X: 24839
T: Maggie's
R: waltz
M: 3/4
K: Dmajor
A,2|F2A3F|D5E|F2A,2D2|F6|G3Bd2|e2d2B2|A6|A6|
B3cd2|e2d2B2|A2D3E|F6|E3^GB2|e2d2B2|A6|A3A,A,2|
F2A3F|D5E|F2A,2D2|F6|G3Bd2|e2d2B2|A6|A6|
B3cd2|e2d2B2|A2D3E|Fd3B2|A2A,2G2|F4E2|D6|D2C2^B,2||
K:G
|:B,2D2G2|B2G2D2|EcEcEc|B6|d3ed2|B2A2G2|A3^GAB|A4DC|
B,2D2G2|B2G2D2|EcEcEc|B6|DBDBDB|A2D2A2|G6|1 G4DC:|2 A4A,2||
K:D
F2A3F|D5E|F2A,2D2|F6|G3Bd2|e2d2B2|A6|A6|
B3cd2|e2d2B2|A2D3E|Fd3B2|A2A,2G2|F4E2|D6|[D6d6]||

